img/icons/calendar.svg

<svg width="19" height="19" fill="none" xmlns="http://www.w3.org/2000/svg"><path d="M18.258 13.063c.41 0 .742-.333.742-.743V4.453a2.972 2.972 0 00-2.969-2.969h-.965V.742a.742.742 0 00-1.484 0v.742h-3.377V.742a.742.742 0 00-1.484 0v.742H5.38V.742a.742.742 0 10-1.485 0v.742H2.97A2.972 2.972 0 000 4.454V16.03A2.972 2.972 0 002.969 19H16.03A2.972 2.972 0 0019 16.031a.742.742 0 00-1.484 0c0 .819-.666 1.485-1.485 1.485H2.97a1.486 1.486 0 01-1.485-1.485V4.453c0-.818.666-1.484 1.485-1.484h.927v.742a.742.742 0 101.485 0v-.742h3.34v.742a.742.742 0 101.484 0v-.742h3.377v.742a.742.742 0 001.484 0v-.742h.965c.819 0 1.485.666 1.485 1.484v7.867c0 .41.332.742.742.742z" fill="#84889C"/><path d="M4.639 8.535a.742.742 0 100-1.484.742.742 0 000 1.484zm6.457 0a.742.742 0 100-1.484.742.742 0 000 1.484zm3.228 0a.742.742 0 100-1.484.742.742 0 000 1.484zm-9.685 3.229a.742.742 0 100-1.485.742.742 0 000 1.485zm0 3.228a.742.742 0 100-1.484.742.742 0 000 1.484zm3.228-6.457a.742.742 0 100-1.484.742.742 0 000 1.484zm0 3.229a.742.742 0 100-1.485.742.742 0 000 1.485zm0 3.228a.742.742 0 100-1.484.742.742 0 000 1.484zm3.229-3.228a.742.742 0 100-1.485.742.742 0 000 1.485zm3.228 0a.742.742 0 100-1.485.742.742 0 000 1.485zm-3.228 3.228a.742.742 0 100-1.484.742.742 0 000 1.484z" fill="#84889C"/></svg>

<svg width="19" height="19" fill="none" xmlns="http://www.w3.org/2000/svg"><path d="M18.258 13.063c.41 0 .742-.333.742-.743V4.453a2.972 2.972 0 00-2.969-2.969h-.965V.742a.742.742 0 00-1.484 0v.742h-3.377V.742a.742.742 0 00-1.484 0v.742H5.38V.742a.742.742 0 10-1.485 0v.742H2.97A2.972 2.972 0 000 4.454V16.03A2.972 2.972 0 002.969 19H16.03A2.972 2.972 0 0019 16.031a.742.742 0 00-1.484 0c0 .819-.666 1.485-1.485 1.485H2.97a1.486 1.486 0 01-1.485-1.485V4.453c0-.818.666-1.484 1.485-1.484h.927v.742a.742.742 0 101.485 0v-.742h3.34v.742a.742.742 0 101.484 0v-.742h3.377v.742a.742.742 0 001.484 0v-.742h.965c.819 0 1.485.666 1.485 1.484v7.867c0 .41.332.742.742.742z" fill="#84889C"/><path d="M4.639 8.535a.742.742 0 100-1.484.742.742 0 000 1.484zM11.096 8.535a.742.742 0 100-1.484.742.742 0 000 1.484zM14.324 8.535a.742.742 0 100-1.484.742.742 0 000 1.484zM4.639 11.764a.742.742 0 100-1.485.742.742 0 000 1.485zM4.639 14.992a.742.742 0 100-1.484.742.742 0 000 1.484zM7.867 8.535a.742.742 0 100-1.484.742.742 0 000 1.484zM7.867 11.764a.742.742 0 100-1.485.742.742 0 000 1.485zM7.867 14.992a.742.742 0 100-1.484.742.742 0 000 1.484zM11.096 11.764a.742.742 0 100-1.485.742.742 0 000 1.485zM14.324 11.764a.742.742 0 100-1.485.742.742 0 000 1.485zM11.096 14.992a.742.742 0 100-1.484.742.742 0 000 1.484z" fill="#84889C"/></svg>
